build/images/icons/advantages-4.svg

<svg width="40" height="40" viewBox="0 0 40 40" fill="none" xmlns="http://www.w3.org/2000/svg">
<g clip-path="url(#clip0)">
<path d="M39.7712 12.8915L28.5843 1.70458C28.2791 1.39958 27.7846 1.39958 27.4794 1.70458L19.9101 9.2738L12.3448 1.70841C12.1983 1.56192 11.9996 1.47958 11.7924 1.47958C11.5852 1.47958 11.3865 1.56192 11.24 1.70841L0.228809 12.7197C-0.0762695 13.0248 -0.0762695 13.5195 0.228809 13.8247L4.9535 18.5493C4.78818 19.1379 4.6274 19.6142 4.49326 20.0116C3.90576 21.7522 3.75404 22.4856 4.91107 24.6244L4.29475 25.2407V25.2408C3.12279 26.4129 3.12287 28.3198 4.29482 29.4917C4.86084 30.0576 5.61568 30.3693 6.42029 30.3693C6.75217 30.3693 7.07568 30.3163 7.38084 30.2143C7.47787 30.8163 7.75803 31.3943 8.22123 31.8573C8.78717 32.4233 9.54201 32.735 10.3467 32.735C10.7176 32.735 11.0779 32.6688 11.414 32.5419C11.5194 33.1228 11.7962 33.6783 12.2443 34.1264C12.8103 34.6923 13.5651 35.004 14.3697 35.004C14.8353 35.004 15.2841 34.8997 15.6894 34.7022C15.8117 35.254 16.0875 35.7597 16.4952 36.1675C17.0813 36.7536 17.8508 37.0466 18.6207 37.0465C19.3903 37.0465 20.1601 36.7535 20.7461 36.1675L21.6589 35.2547L24.0509 37.6466C24.6169 38.2126 25.3716 38.5243 26.1763 38.5243H26.1764C26.981 38.5243 27.7359 38.2126 28.3019 37.6467C29.2321 36.7165 29.4239 35.3229 28.8773 34.2016C29.4293 34.0794 29.9351 33.8036 30.343 33.3958C30.909 32.8297 31.2207 32.0749 31.2207 31.2703C31.2207 30.8049 31.1164 30.3561 30.919 29.9509C31.4563 29.8308 31.9669 29.5621 32.3842 29.1448C32.9501 28.5788 33.2619 27.824 33.2619 27.0193C33.2619 26.554 33.1576 26.1052 32.9601 25.7C33.4975 25.5798 34.008 25.3111 34.4254 24.8938C35.5973 23.7218 35.5973 21.8149 34.4254 20.6429L33.7751 19.9926L39.7712 13.9965C40.0763 13.6913 40.0763 13.1966 39.7712 12.8915ZM6.42029 28.8068C6.03303 28.8068 5.67053 28.6576 5.39967 28.3867C4.83693 27.824 4.83693 26.9083 5.39967 26.3454V26.3455L9.62717 22.1181C9.89803 21.8472 10.2604 21.698 10.6477 21.698C11.035 21.698 11.3975 21.8472 11.6683 22.1181C11.9392 22.389 12.0883 22.7514 12.0883 23.1386C12.0883 23.5259 11.9392 23.8884 11.6683 24.1592L8.22107 27.6063L7.44076 28.3866C7.16998 28.6575 6.80756 28.8068 6.42029 28.8068ZM11.3672 30.7524C11.0963 31.0233 10.734 31.1724 10.3466 31.1725C9.95928 31.1725 9.59686 31.0233 9.32607 30.7524C8.76342 30.1898 8.76326 29.2744 9.32561 28.7115C9.32576 28.7115 9.32584 28.7113 9.326 28.7112L12.7732 25.2641C13.3359 24.7014 14.2516 24.7014 14.8144 25.2641C15.3771 25.8268 15.3771 26.7425 14.8144 27.3053L12.2442 29.8754L11.3672 30.7524ZM15.3902 33.0215C15.1194 33.2923 14.757 33.4415 14.3697 33.4415C13.9824 33.4415 13.6199 33.2923 13.3491 33.0215C12.7865 32.4589 12.7863 31.5435 13.3487 30.9806C13.3488 30.9805 13.3489 30.9804 13.349 30.9803L15.9192 28.4102C16.4819 27.8475 17.3976 27.8475 17.9604 28.4102C18.2312 28.6811 18.3804 29.0435 18.3804 29.4308C18.3804 29.818 18.2312 30.1805 17.9604 30.4513L16.4951 31.9165L15.3902 33.0215ZM19.6412 35.0626C19.3703 35.3335 19.0079 35.4826 18.6206 35.4826C18.2333 35.4826 17.8708 35.3335 17.6001 35.0626C17.0373 34.4999 17.0373 33.5842 17.6001 33.0215L19.0653 31.5562C19.628 30.9935 20.5437 30.9935 21.1065 31.5562C21.6692 32.119 21.6692 33.0347 21.1065 33.5974L19.6412 35.0626ZM33.3204 23.7889C32.7577 24.3515 31.8419 24.3517 31.2793 23.7889L30.1744 22.684C29.8692 22.379 29.3747 22.379 29.0694 22.684C28.7644 22.989 28.7644 23.4837 29.0694 23.7889L30.1744 24.8938L31.2793 25.9987C31.842 26.5615 31.842 27.4772 31.2793 28.0399C30.7165 28.6026 29.8008 28.6026 29.2381 28.0399L28.1332 26.935C27.828 26.63 27.3335 26.63 27.0283 26.935C26.7232 27.24 26.7232 27.7347 27.0283 28.0399L28.1332 29.1448L29.2381 30.2497C29.8008 30.8125 29.8008 31.7282 29.2381 32.2909C28.6754 32.8536 27.7597 32.8536 27.1969 32.2909L26.092 31.186C25.7869 30.881 25.2923 30.881 24.9871 31.186C24.682 31.4911 24.682 31.9858 24.9871 32.2909L26.092 33.3958L27.1969 34.5008C27.4679 34.7716 27.617 35.134 27.617 35.5213C27.617 35.9086 27.4679 36.2711 27.1969 36.5418C26.9261 36.8127 26.5637 36.9619 26.1763 36.9619C25.789 36.9618 25.4266 36.8127 25.1558 36.5418L22.6905 34.0767C23.3515 32.9279 23.1922 31.4324 22.2114 30.4515C21.5883 29.8283 20.7585 29.5379 19.9396 29.576C19.9419 29.5279 19.943 29.4795 19.943 29.431C19.943 28.6263 19.6313 27.8715 19.0654 27.3054C18.4422 26.6823 17.6115 26.3921 16.7936 26.43C16.7958 26.3818 16.797 26.3335 16.797 26.285C16.797 25.4803 16.4853 24.7254 15.9194 24.1594C15.2962 23.5362 14.4644 23.245 13.6476 23.284C13.6498 23.2358 13.651 23.1875 13.651 23.1389C13.651 22.3343 13.3393 21.5794 12.7733 21.0134C11.6012 19.8415 9.69436 19.8414 8.5224 21.0134L6.066 23.4697C5.41178 22.178 5.54498 21.782 5.97389 20.5115C6.14725 19.9979 6.36287 19.3587 6.58193 18.5122C6.65123 18.2443 6.57365 17.9598 6.37803 17.7641L1.88631 13.2724L11.7925 3.36575L19.8551 11.4284C20.1603 11.7334 20.6548 11.7334 20.9601 11.4284C21.2309 11.1575 21.5933 11.0083 21.9806 11.0083C22.3679 11.0083 22.7304 11.1575 23.0012 11.4284L33.3204 21.7477C33.8832 22.3104 33.8832 23.2261 33.3204 23.7889ZM32.6701 18.8876L24.1061 10.3236C23.5119 9.7295 22.7289 9.43708 21.9485 9.44536L28.0319 3.362L38.1139 13.444L32.6701 18.8876Z" fill="#EAC57E"/>
<path d="M25.647 24.4488C25.342 24.144 24.8475 24.144 24.5423 24.4491C24.2372 24.7541 24.2374 25.2491 24.5425 25.5542C24.6951 25.7067 24.895 25.7831 25.0949 25.7831C25.2949 25.7831 25.4948 25.7067 25.6474 25.5542C25.9524 25.2491 25.9524 24.7544 25.6474 24.4493L25.647 24.4488Z" fill="#EAC57E"/>
</g>
<defs>
<clipPath id="clip0">
<rect width="40" height="40" fill="white"/>
</clipPath>
</defs>
</svg>

<svg width="40" height="40" fill="none" xmlns="http://www.w3.org/2000/svg"><g clip-path="url(#clip0)" fill="#EAC57E"><path d="M39.771 12.892L28.584 1.705a.781.781 0 00-1.105 0L19.91 9.274l-7.565-7.566a.781.781 0 00-1.105 0L.229 12.72a.781.781 0 000 1.105l4.724 4.724c-.165.589-.326 1.065-.46 1.463-.587 1.74-.739 2.474.418 4.612l-.616.617a3.01 3.01 0 000 4.25c.566.567 1.32.878 2.125.878.332 0 .656-.053.96-.155.098.602.378 1.18.841 1.643.566.566 1.321.878 2.126.878.37 0 .73-.066 1.067-.193.105.58.382 1.136.83 1.584.566.566 1.321.878 2.126.878.465 0 .914-.104 1.32-.302a2.996 2.996 0 002.931 2.344c.77 0 1.54-.292 2.125-.879l.913-.912 2.392 2.392c.566.566 1.32.877 2.125.877.805 0 1.56-.311 2.126-.877a3.011 3.011 0 00.575-3.445 2.977 2.977 0 001.466-.806c.566-.566.878-1.321.878-2.126 0-.465-.105-.914-.302-1.32a2.988 2.988 0 001.465-.805c.566-.566.878-1.321.878-2.126 0-.465-.104-.914-.302-1.319a2.99 2.99 0 001.465-.806 3.01 3.01 0 000-4.251l-.65-.65 5.996-5.996a.781.781 0 000-1.105zM6.421 28.806c-.388 0-.75-.15-1.021-.42a1.445 1.445 0 010-2.042l4.227-4.227c.271-.27.633-.42 1.02-.42a1.432 1.432 0 011.441 1.44c0 .388-.149.75-.42 1.021l-3.447 3.447-.78.78c-.271.271-.633.42-1.02.42zm4.946 1.945c-.27.271-.633.42-1.02.42-.388 0-.75-.149-1.02-.42a1.445 1.445 0 01-.001-2.04l3.447-3.448a1.445 1.445 0 012.041 0 1.445 1.445 0 010 2.041l-2.57 2.57-.877.877zm4.023 2.27c-.27.27-.633.42-1.02.42-.388 0-.75-.15-1.02-.42a1.445 1.445 0 01-.001-2.041l2.57-2.57a1.445 1.445 0 012.041 0c.271.27.42.633.42 1.02s-.149.75-.42 1.02l-1.465 1.465-1.105 1.106zm4.251 2.04c-.27.272-.633.42-1.02.42-.388 0-.75-.148-1.02-.42a1.445 1.445 0 010-2.04l1.464-1.466a1.445 1.445 0 012.041 0 1.445 1.445 0 010 2.041l-1.465 1.466zm13.68-11.273a1.445 1.445 0 01-2.042 0l-1.105-1.105a.782.782 0 00-1.105 1.105l1.105 1.105 1.105 1.105a1.445 1.445 0 010 2.04 1.445 1.445 0 01-2.04 0l-1.106-1.104a.781.781 0 00-1.105 1.105l1.105 1.105 1.105 1.105a1.445 1.445 0 010 2.04 1.445 1.445 0 01-2.041 0l-1.105-1.104a.781.781 0 00-1.105 1.105l1.105 1.105 1.105 1.105c.27.27.42.633.42 1.02a1.432 1.432 0 01-1.44 1.44c-.388 0-.75-.148-1.021-.42l-2.465-2.464a3.002 3.002 0 00-2.75-4.5l.002-.146c0-.805-.312-1.56-.878-2.126a3.005 3.005 0 00-2.271-.875 2.985 2.985 0 00-.874-2.27 3.002 3.002 0 00-2.272-.876 2.985 2.985 0 00-.874-2.27 3.01 3.01 0 00-4.252 0L6.066 23.47c-.654-1.292-.521-1.688-.092-2.958.173-.514.389-1.153.608-2a.781.781 0 00-.204-.748l-4.492-4.492 9.907-9.906 8.062 8.062c.305.305.8.305 1.105 0 .27-.27.633-.42 1.02-.42.388 0 .75.15 1.021.42l10.32 10.32a1.445 1.445 0 010 2.04zm-.65-4.901l-8.565-8.564a2.997 2.997 0 00-2.158-.879l6.084-6.083 10.082 10.082-5.444 5.444z"/><path d="M25.647 24.449a.781.781 0 10-1.105 1.104.781.781 0 001.105-1.104z"/></g><defs><clipPath id="clip0"><path fill="#fff" d="M0 0h40v40H0z"/></clipPath></defs></svg>
